img/logo.svg

<svg enable-background="new 0 0 32.362 13.617" height="13.617" viewBox="0 0 32.362 13.617" width="32.362" xmlns="http://www.w3.org/2000/svg"><path d="m5.398 3.761c.061.527-.025 1.215.11 1.607-.098.098.025.294-.061.393.086.11.037.27.037.405-.037 1.042-.049 2.502-.602 3.422-.208.209-1.411.504-2.061.504-.81-.037-1.84-.209-2.27-.602-.244-.246-.539-.969-.551-1.865 0-.257 0-1.006.061-1.227.037-.27.981-.098 1.092-.061.037.246-.221 1.497-.184 1.755.037.344.196.49.38.797.196.332.675.43.908.467.466.06 1.178-.307 1.251-.786.012-.099.012-.233.012-.344 0-.724 0-1.153-.037-1.926-.037-.711-.037-1.705 0-2.27.037-.332 0-.724.012-1.104-.281-.036-1.741-.061-2.035-.122-.111-.147-.27-.344-.172-.491.712-.196 2.724-.037 3.582-.073.454-.012.773.11.675.65-.123.257-.012.601-.147.871z"/><path d="m19.739 0c-.711 2.037-2.404 3.116-3.312 4.957.663.736 1.398-.393 2.896 0-1.57 3.508-4.687 5.497-6.6 8.661-.908-1.545 1.448-3.508 1.644-5.373-.196-.908-2.037-.146-2.896-.417.932-2.626 2.183-4.982 2.895-7.828z"/><path d="m30.634 3.258c.135.196.393.957.552 1.178.037.429.185.957.282 1.509.049.246.049.479.11.712.099.38.222.662.356.994.049.171.502 2.037.416 2.27-.601.367-1.165.146-1.766.109-.037-.086-.111-.109-.16-.172-.135-.907-.576-2.588-.81-3.422-.785.147-1.423.074-2.294.037-.196.908-.503 2.356-.932 3.177-.099.196-.908.294-1.007.099.294-1.547 1.092-3.767 1.583-4.944.098-.246.11-.233.209-.491.33-.834.27-1.656 1.189-1.988.221-.098 1.35-.037 1.619-.037zm-2.49.773c-.074.343-.074.331-.209.577-.086.159-.196.331-.258.491-.037.086-.024.184-.061.27-.086.233-.16.368-.16.625.639-.098 1.239.049 1.988-.11-.16-.884-.59-1.804-.896-2.835-.319.16-.172.675-.404.982z"/></svg>

<?xml version="1.0" encoding="utf-8"?>
<!-- Generator: Adobe Illustrator 16.0.0, SVG Export Plug-In . SVG Version: 6.00 Build 0)  -->
<!DOCTYPE svg PUBLIC "-//W3C//DTD SVG 1.1//EN" "http://www.w3.org/Graphics/SVG/1.1/DTD/svg11.dtd">
<svg version="1.1" id="Layer_1" xmlns="http://www.w3.org/2000/svg" xmlns:xlink="http://www.w3.org/1999/xlink" x="0px" y="0px"
	 width="32.362px" height="13.617px" viewBox="0 0 32.362 13.617" enable-background="new 0 0 32.362 13.617" xml:space="preserve">
<path d="M5.398,3.761c0.061,0.527-0.025,1.215,0.11,1.607C5.41,5.466,5.533,5.662,5.447,5.761c0.086,0.11,0.037,0.27,0.037,0.405
	C5.447,7.208,5.435,8.668,4.882,9.588c-0.208,0.209-1.411,0.504-2.061,0.504c-0.81-0.037-1.84-0.209-2.27-0.602
	C0.307,9.244,0.012,8.521,0,7.625c0-0.257,0-1.006,0.061-1.227C0.098,6.128,1.042,6.3,1.153,6.337
	C1.19,6.583,0.932,7.834,0.969,8.092c0.037,0.344,0.196,0.49,0.38,0.797c0.196,0.332,0.675,0.43,0.908,0.467
	C2.723,9.416,3.435,9.049,3.508,8.57c0.012-0.099,0.012-0.233,0.012-0.344c0-0.724,0-1.153-0.037-1.926
	c-0.037-0.711-0.037-1.705,0-2.27c0.037-0.332,0-0.724,0.012-1.104C3.214,2.89,1.754,2.865,1.46,2.804
	C1.349,2.657,1.19,2.46,1.288,2.313C2,2.117,4.012,2.276,4.87,2.24c0.454-0.012,0.773,0.11,0.675,0.65
	C5.422,3.147,5.533,3.491,5.398,3.761z"/>
<path d="M19.739,0c-0.711,2.037-2.404,3.116-3.312,4.957c0.663,0.736,1.398-0.393,2.896,0c-1.57,3.508-4.687,5.497-6.6,8.661
	c-0.908-1.545,1.448-3.508,1.644-5.373c-0.196-0.908-2.037-0.146-2.896-0.417C12.403,5.202,13.654,2.846,14.366,0H19.739z"/>
<path d="M30.634,3.258c0.135,0.196,0.393,0.957,0.552,1.178c0.037,0.429,0.185,0.957,0.282,1.509
	c0.049,0.246,0.049,0.479,0.11,0.712c0.099,0.38,0.222,0.662,0.356,0.994c0.049,0.171,0.502,2.037,0.416,2.27
	c-0.601,0.367-1.165,0.146-1.766,0.109c-0.037-0.086-0.111-0.109-0.16-0.172c-0.135-0.907-0.576-2.588-0.81-3.422
	c-0.785,0.147-1.423,0.074-2.294,0.037c-0.196,0.908-0.503,2.356-0.932,3.177c-0.099,0.196-0.908,0.294-1.007,0.099
	c0.294-1.547,1.092-3.767,1.583-4.944c0.098-0.246,0.11-0.233,0.209-0.491c0.33-0.834,0.27-1.656,1.189-1.988
	c0.221-0.098,1.35-0.037,1.619-0.037L30.634,3.258z M28.144,4.031c-0.074,0.343-0.074,0.331-0.209,0.577
	c-0.086,0.159-0.196,0.331-0.258,0.491c-0.037,0.086-0.024,0.184-0.061,0.27c-0.086,0.233-0.16,0.368-0.16,0.625
	c0.639-0.098,1.239,0.049,1.988-0.11C29.284,5,28.854,4.08,28.548,3.049C28.229,3.209,28.376,3.724,28.144,4.031z"/>
</svg>
